hero/solid/server-stack.svg

<svg width="24" height="24" viewBox="0 0 24 24" fill="none" xmlns="http://www.w3.org/2000/svg">
<path d="M5.50701 4.04763C6.07695 3.38269 6.909 3 7.78478 3H16.2151C17.0908 3 17.9229 3.38269 18.4928 4.04763L20.2147 6.05645C19.9819 6.0193 19.7432 6 19.4999 6H4.49992C4.25668 6 4.01794 6.0193 3.78516 6.05645L5.50701 4.04763Z" fill="#0F172A"/>
<path fill-rule="evenodd" clip-rule="evenodd" d="M1.5 10.5C1.5 8.84315 2.84315 7.5 4.5 7.5H19.5C21.1569 7.5 22.5 8.84315 22.5 10.5C22.5 12.1569 21.1569 13.5 19.5 13.5H4.5C2.84315 13.5 1.5 12.1569 1.5 10.5ZM16.5 10.5C16.5 10.9142 16.1642 11.25 15.75 11.25C15.3358 11.25 15 10.9142 15 10.5C15 10.0858 15.3358 9.75 15.75 9.75C16.1642 9.75 16.5 10.0858 16.5 10.5ZM18.75 11.25C19.1642 11.25 19.5 10.9142 19.5 10.5C19.5 10.0858 19.1642 9.75 18.75 9.75C18.3358 9.75 18 10.0858 18 10.5C18 10.9142 18.3358 11.25 18.75 11.25Z" fill="#0F172A"/>
<path fill-rule="evenodd" clip-rule="evenodd" d="M4.5 15C2.84315 15 1.5 16.3431 1.5 18C1.5 19.6569 2.84315 21 4.5 21H19.5C21.1569 21 22.5 19.6569 22.5 18C22.5 16.3431 21.1569 15 19.5 15H4.5ZM15.75 18.75C16.1642 18.75 16.5 18.4142 16.5 18C16.5 17.5858 16.1642 17.25 15.75 17.25C15.3358 17.25 15 17.5858 15 18C15 18.4142 15.3358 18.75 15.75 18.75ZM19.5 18C19.5 18.4142 19.1642 18.75 18.75 18.75C18.3358 18.75 18 18.4142 18 18C18 17.5858 18.3358 17.25 18.75 17.25C19.1642 17.25 19.5 17.5858 19.5 18Z" fill="#0F172A"/>
</svg>

<svg viewBox="0 0 24 24" xmlns="http://www.w3.org/2000/svg"><g><path d="M5.507 4.048v0c.56-.67 1.4-1.05 2.27-1.05h8.43 -.001c.87 0 1.7.38 2.27 1.04l1.72 2v0c-.24-.04-.48-.06-.72-.06h-15c-.25 0-.49.02-.72.05l1.72-2.01Z"/><path fill-rule="evenodd" d="M1.5 10.5v0c0-1.66 1.34-3 3-3h15v0c1.65 0 3 1.34 3 3 0 1.65-1.35 3-3 3h-15v0c-1.66 0-3-1.35-3-3Zm15 0v0c0 .41-.34.75-.75.75 -.42 0-.75-.34-.75-.75v0c0-.42.33-.75.75-.75 .41 0 .75.33.75.75Zm2.25.75v0c.41 0 .75-.34.75-.75 0-.42-.34-.75-.75-.75v0c-.42 0-.75.33-.75.75 0 .41.33.75.75.75ZM4.5 15v0c-1.66 0-3 1.34-3 3 0 1.65 1.34 3 3 3h15v0c1.65 0 3-1.35 3-3 0-1.66-1.35-3-3-3h-15Zm11.25 3.75v0c.41 0 .75-.34.75-.75 0-.42-.34-.75-.75-.75v0c-.42 0-.75.33-.75.75 0 .41.33.75.75.75ZM19.5 18v0c0 .41-.34.75-.75.75 -.42 0-.75-.34-.75-.75v0c0-.42.33-.75.75-.75 .41 0 .75.33.75.75Z"/></g></svg>
